X:1
T: Winter Waltz
N:
C:"Crossing to Ireland" (Scottish trad.)
S:Play  3  times  OR  1st, 2nd, 3rd
A:
O:
R:
M:3/4
K:Em
I:speed 150
%W: A1
% voice 1 (1 lines, 28 notes)
K:Em
M:3/4
L:1/16
e2 f2 |g4 e4 e4 |B4 e6 B2 |G4 E4 E4 |E6 b2 a2 g2 |f4 d4 d4 |A4 d6 A2 |F4 D4 D4 |D6 a2 g2 f2 |
%W: A2
% voice 1 (1 lines, 24 notes)
g4 e4 e4 |B4 e6 B2 |G4 E4 g4 |f8 e4 |G6 A2 B2 ^c2 |d4 ^c4 B4 |A4 G4 F4 |E8 e2 f2 |
%W: B1
% voice 1 (1 lines, 29 notes)
g4 e4 e4 |B4 e4 e4 |E4 G4 B4 |e2 f2 g2 b2 a2 g2 |f4 d4 d4 |A4 d6 A2 |D4 F4 A4 |d2 e2 f4 a2 f2 |
%W: B2
% voice 1 (1 lines, 23 notes)
g6 f2 e4 |f6 e2 ^d4 |e6 d2 B4 |A6 G2 F4 |G6 A2 B2 ^c2 |d4 ^c4 B4 |A4 G4 F4 |E8 ||
